%
(Drill Spoil Board, reference top of MDF)
(Machine)
(  vendor Tormach)
(  model 24R)
(  description Tormach 24R)
(T1 D=6.35 CR=0. - ZMIN=-6.35 - flat end mill)
G90 G56 G64 G50 G17 G40 G80 G94 G91.1 G49
G21 (Metric)
G30

N10 (2D Contour1)
T1 G43 H1 M6
S10000 M3 M8
G17 G90 G94
G56

(Set initial height position)
G0 X0 Y100 Z5

(Hole 1)
G0 X80 Y58.23
G4 P0.250
G1 Z-20 F1440
G1 Z-6.36 F1440
G1 X83.075
G2 X83.075 Y58.23 I-3.075 J0 F1440
G1 Z5 F1440

(Hole 2)
G0 X575 Y58.23
G4 P0.250
G1 Z-20 F1440
G1 Z-6.36 F1440
G1 X578.075
G2 X578.075 Y58.23 I-3.075 J0 F1440
G1 Z5 F1440

(Hole 3)
G0 X575 Y370.98
G4 P0.250
G1 Z-20 F1440
G1 Z-6.36 F1440
G1 X578.075
G2 X578.075 Y370.98 I-3.075 J0 F1440
G1 Z5 F1440
G4 P0.500

(Hole 4)
G0 X327.5 Y370.98
G4 P0.250
G1 Z-20 F1440
G1 Z-6.36 F1440
G1 X330.575
G2 X330.575 Y370.98 I-3.075 J0 F1440
G1 Z5 F1440

(Hole 5)
G0 X80 Y370.98
G4 P0.250
G1 Z-20 F1440
G1 Z-6.36 F1440
G1 X83.075
G2 X83.075 Y370.98 I-3.075 J0 F1440
G1 Z5 F1440

(Hole 6)
G0 X80 Y848.23
G4 P0.250
G1 Z-20 F1440
G1 Z-6.36 F1440
G1 X83.075
G2 X83.075 Y848.23 I-3.075 J0 F1440
G1 Z5 F1440

(Hole 7)
G0 X327.5 Y848.23
G4 P0.250
G1 Z-20 F1440
G1 Z-6.36 F1440
G1 X330.575
G2 X330.575 Y848.23 I-3.075 J0 F1440
G1 Z5 F1440

(Hole 8)
G0 X575 Y848.23
G4 P0.250
G1 Z-20 F1440
G1 Z-6.36 F1440
G1 X578.075
G2 X578.075 Y848.23 I-3.075 J0 F1440
G1 Z5 F1440

(Hole 9)
G0 X575 Y1160.98
G4 P0.250
G1 Z-20 F1440
G1 Z-6.36 F1440
G1 X578.075
G2 X578.075 Y1160.98 I-3.075 J0 F1440
G1 Z5 F1440

(Hole 10)
G0 X80 Y1160.98
G4 P0.250
G1 Z-20 F1440
G1 Z-6.36 F1440
G1 X83.075
G2 X83.075 Y1160.98 I-3.075 J0 F1440
G1 Z5 F1440

G0 X0 Y100 Z5

M5 M9

G30
M30
%